X: 28220
T: Mrs. Dundas McQueen
R: reel
M: 4/4
K: Gmajor
|BGdB cAec|BGdB (3def gd|BGdB cAec|BG (3Bcd e2df|
gdBd eAAf|gdBd e2 df|gdBd eAAc|BG (3Bcd e2dc|

